public/assets/img/svg/embed/duplicate.svg

<?xml version="1.0" encoding="UTF-8" standalone="no"?>
<svg width="45px" height="37px" viewBox="0 0 45 37" version="1.1" xmlns="http://www.w3.org/2000/svg" xmlns:xlink="http://www.w3.org/1999/xlink" xmlns:sketch="http://www.bohemiancoding.com/sketch/ns">
    <!-- Generator: Sketch 3.2.2 (9983) - http://www.bohemiancoding.com/sketch -->
    <title>Fill 136 + Fill 78</title>
    <desc>Created with Sketch.</desc>
    <defs></defs>
    <g id="UI" stroke="none" stroke-width="1" fill="none" fill-rule="evenodd" sketch:type="MSPage">
        <g id="Toolbox-Expanded" sketch:type="MSArtboardGroup" transform="translate(-582.000000, -209.000000)" fill="#000000">
            <g id="Duplicate-+-Fill-136-+-Fill-78" sketch:type="MSLayerGroup" transform="translate(562.000000, 209.000000)">
                <g id="Fill-136-+-Fill-78" transform="translate(20.000000, 0.000000)" sketch:type="MSShapeGroup">
                    <path d="M5.16652645,28.2412884 L1.67021329,28.2412884 L1.67021329,1.70094088 L37.2613451,1.70094088 L37.2613451,6.14606638 C37.2613451,6.61552607 37.6365863,6.99653682 38.0964517,6.99653682 C38.5585441,6.99653682 38.9326718,6.61552607 38.9326718,6.14606638 L38.9326718,0.85047044 C38.9326718,0.381010757 38.5585441,0 38.0964517,0 L0.835106646,0 C0.374127778,0 0,0.381010757 0,0.85047044 L0,29.0917589 C0,29.5612185 0.374127778,29.9422293 0.835106646,29.9422293 L5.16652645,29.9422293 C5.6286188,29.9422293 6.00274657,29.5612185 6.00274657,29.0917589 C6.00274657,28.6222992 5.6286188,28.2412884 5.16652645,28.2412884 L5.16652645,28.2412884 Z M44.1648934,7.05890466 L6.89686742,7.05890466 C6.43588855,7.05890466 6.06176078,7.43991541 6.06176078,7.9093751 L6.06176078,36.1495296 C6.06176078,36.6201232 6.43588855,37 6.89686742,37 L44.1648934,37 C44.6258722,37 45,36.6201232 45,36.1495296 L45,7.9093751 C45,7.43991541 44.6258722,7.05890466 44.1648934,7.05890466 L44.1648934,7.05890466 Z M7.73197407,8.75984554 L43.3309002,8.75984554 L43.3309002,35.2990591 L7.73197407,35.2990591 L7.73197407,8.75984554 Z" id="Fill-136"></path>
                    <path d="M22.126,12 C16.543,12 12,16.542 12,22.125 C12,27.709 16.543,32.252 22.126,32.252 C27.71,32.252 32.252,27.709 32.252,22.125 C32.252,16.542 27.71,12 22.126,12 L22.126,12 Z M22.126,30.752 C17.37,30.752 13.5,26.882 13.5,22.125 C13.5,17.369 17.37,13.5 22.126,13.5 C26.883,13.5 30.752,17.369 30.752,22.125 C30.752,26.882 26.883,30.752 22.126,30.752 L22.126,30.752 Z M26.429,21.375 L22.876,21.375 L22.876,17.821 C22.876,17.406 22.541,17.071 22.126,17.071 C21.712,17.071 21.376,17.406 21.376,17.821 L21.376,21.375 L17.822,21.375 C17.408,21.375 17.072,21.711 17.072,22.125 C17.072,22.539 17.408,22.875 17.822,22.875 L21.376,22.875 L21.376,26.428 C21.376,26.842 21.712,27.178 22.126,27.178 C22.541,27.178 22.876,26.842 22.876,26.428 L22.876,22.875 L26.429,22.875 C26.843,22.875 27.179,22.539 27.179,22.125 C27.179,21.711 26.843,21.375 26.429,21.375 L26.429,21.375 Z" id="Fill-78"></path>
                </g>
            </g>
        </g>
    </g>
</svg>

<?xml version="1.0" encoding="utf-8"?>
<!-- Generator: Adobe Illustrator 17.0.0, SVG Export Plug-In . SVG Version: 6.00 Build 0)  -->
<!DOCTYPE svg PUBLIC "-//W3C//DTD SVG 1.1//EN" "http://www.w3.org/Graphics/SVG/1.1/DTD/svg11.dtd">
<svg version="1.1" id="Layer_1" xmlns:sketch="http://www.bohemiancoding.com/sketch/ns"
	 xmlns="http://www.w3.org/2000/svg" xmlns:xlink="http://www.w3.org/1999/xlink" x="0px" y="0px" width="48px" height="48px"
	 viewBox="-1.5 -5.5 48 48" enable-background="new -1.5 -5.5 48 48" xml:space="preserve">
<title>Fill 136 + Fill 78</title>
<desc>Created with Sketch.</desc>
<g id="UI" sketch:type="MSPage">
	<g id="Toolbox-Expanded" transform="translate(-582.000000, -209.000000)" sketch:type="MSArtboardGroup">
		<g id="Duplicate-_x2B_-Fill-136-_x2B_-Fill-78" transform="translate(562.000000, 209.000000)" sketch:type="MSLayerGroup">
			<g id="Fill-136-_x2B_-Fill-78" transform="translate(20.000000, 0.000000)" sketch:type="MSShapeGroup">
				<path id="Fill-136" d="M5.167,28.241H1.67V1.701h35.591v4.445c0,0.469,0.375,0.85,0.835,0.85c0.462,0,0.836-0.381,0.836-0.85
					V0.85c0-0.469-0.374-0.85-0.836-0.85H0.835C0.374,0,0,0.381,0,0.85v28.241c0,0.469,0.374,0.85,0.835,0.85h4.331
					c0.462,0,0.836-0.381,0.836-0.85S5.629,28.241,5.167,28.241L5.167,28.241z M44.165,7.059H6.897c-0.461,0-0.835,0.381-0.835,0.85
					v28.24c0,0.471,0.374,0.85,0.835,0.85h37.268C44.626,37,45,36.62,45,36.15V7.909C45,7.44,44.626,7.059,44.165,7.059
					L44.165,7.059z M7.732,8.76h35.599v26.539H7.732V8.76z"/>
				<path id="Fill-78" d="M22.126,12C16.543,12,12,16.542,12,22.125c0,5.584,4.543,10.127,10.126,10.127
					c5.584,0,10.126-4.543,10.126-10.127C32.252,16.542,27.71,12,22.126,12L22.126,12z M22.126,30.752
					c-4.756,0-8.626-3.87-8.626-8.627c0-4.756,3.87-8.625,8.626-8.625c4.757,0,8.626,3.869,8.626,8.625
					C30.752,26.882,26.883,30.752,22.126,30.752L22.126,30.752z M26.429,21.375h-3.553v-3.554c0-0.415-0.335-0.75-0.75-0.75
					c-0.414,0-0.75,0.335-0.75,0.75v3.554h-3.554c-0.414,0-0.75,0.336-0.75,0.75s0.336,0.75,0.75,0.75h3.554v3.553
					c0,0.414,0.336,0.75,0.75,0.75c0.415,0,0.75-0.336,0.75-0.75v-3.553h3.553c0.414,0,0.75-0.336,0.75-0.75
					S26.843,21.375,26.429,21.375L26.429,21.375z"/>
			</g>
		</g>
	</g>
</g>
</svg>
